X:118
T:Minos Court. THO5.118
M:6/8
L:1/8
B:Thompson's Complete Collection of 200 Favourite Dances Vol.5
F:https://www.libraryofdance.org/manuals/1780c-Thompson-Compleat-5.pdf
Z:vmp. Peter Dunk 2024
Q:3/8=110
K:F
FGF A2c|f3 c3|d2B G2c|A3 F3|
FGF A2c|f3 a3|gfe G2=B|c3-c3:|
|:cdc e2g|b3 g3|a2f d2g|e3 c3|
faf c2A|BdB G2B|AGF G2E|F3-F3:|
W:
W:The 1st Gent foot it to the 2nd Lady and turn ./.
W:Th 1st Lady do the same to the 2nd Gent ./:
W:Lead down the middle, up again & cast off :/.
W:Right & Laft :/:

